X:1
T: Gary Thomas's Reel
C: Bruce Shawyer
P:Arr. from strathspey to reel by
R:Reel
Q: 232
K:Am
M:4/4
L:1/8
|:ed|c2 A2 A2 AB|AG ED E2 AB|c2 BA e2 dc|B2 G2 G2 ed|
c2 A2 A2 dc|BA G2 G2 ed|cA BG E2 ^F^G|A2 A2 A2 eg|
a2 a2 a2 bc'|b2 ab e2 e^f|ge dc B2 AB|G2 E2 E2 BA|
G2 E2 g2 ^fg|a2 AB c2 de|fd ec dc Bc|1A2 A2 A2 ed:|2A2 A2 A2||
